!!!OTL: AUF DER ALMA DORT FINDEN DIE KUEH
!!!ARE: Europa, Mitteleuropa, Oesterreich, Tirol
!!!SCT: E1484
!!!YEM: Copyright 1995, estate of Helmut Schaffrath.
**kern
*ICvox
*Ivox
*M3/4
*k[]
*C:
{8.G
16F
=1
8E
8G
4.e
8d
=2
8c
8E
4.G}
{8c
=3
8B
8D
8F
8G
8B
8d
=4
8c
8E
4.G}
{8F
=5
8E
8G
4.e
8d
=6
8c
8E
4.G}
{8c
=7
8B
8D
8F
8G
8B
8d
=8
4c
4.r}
{8e
=9
8d
8c
4.A
8F#
=10
8G
8B
4.d}
{8d
=11
8e
8d
8c
8D
8F#
8A
=12
8G
8B
4.g}
{8e
=13
8d
8c
4.A
8F#
=14
8G
8B
4.d}
{8d
=15
8e
8d
8c
8D
8F#
8A
=16
4G
4r}
{8G
8F
=17
8E
8G
4.e
8d
=18
8c
8E
4.G}
{8c
=19
8B
8D
8F
8G
8B
8d
=20
8c
8E
4.G}
{8F
=21
8E
8G
4.e
8d
=22
8c
8E
4.G}
{8g
=23
8a
8g
8f
8B
8B
8d
=24
4c
4r}
{4g
=25
8g
8f
8f
8G
4d
=26
8f
8e
8c
8E
4G}
=27
{4G
8d
8G
4d
=28
4G
8e
8G
4c}
=29
{8a
8g
8f
8G
4d
=30
8G
8e
8c
8E
4G}
=31
{4G
8f
8B
8d
8G
=32
2c}
==
!!!AGN: Staende -, Hirten -, Alpen - Lied
!!!ONB: ESAC (Essen Associative Code) Database: ERK3
!!!AMT: simple triple
!!!AIN: vox
!!!EED: Helmut Schaffrath
!!!EEV: 1.0
*-
